X: 161326
T: P\'adraic Mac Giollarn\'ath
S: "Ceol Rince na hEireann" 1/44
Z: B.Black
L: 1/8
M: 6/8
R: jig
K: Dmix
A2d cAG|Add cAG|GFD DED|GFE DED|
A2d cAG|Ad^c d2e|fed cAG|1 Add d3 :|2 Add d2||
e|f2f fed|efe f2e|d^cd def|edB ABd|
f2f fed|efe efg|fed cAG|Ad^c d2 :|
